X:18920
T:Woodville Waltz, the
R:Waltz
O:England
M:3/4
C:Andy Hornby
A:Lancaster
K:G
DG|\
B2B2 dc| A2G2 dc| B2Bc dc| B2G2 cB|\
A2 A2 G2| F3G FE| DE FG AB| cd ed ^cd|
B2B2 dc| BA GB dc| B2 Bc dc | B2G2 cB|\
A2A2G2| F3G FE| DE FG AF| G4||
(3def|\
g2g2 bg| f2fg af| e2ef (3gfe| d^c de dB|\
c2 cd ec| B2Bc dB| AB cB AG| d4 ef|
g2g2 (3bag| f2 fg af| e2ef (3gfe| d^c de dB|\
c2cd ec| B2Bc dB| cB Aa fa| g4||
d2|\
g2 (b2 b)g| f2d2B2| cB ce dc| d2 B2 G2|\
E2 (c2 c)E| D2 (B2 B)G| E2A2 G2| FG AB cd|
g2 (b2 b)g| f2d2B2| cB ce dc| d2B2G2|\
e2 (c2 c)E| D2 B2G2| FG A2F2| G4 |]
W:Copyright Andy Hornby 13.10.97


